X:1
T:[ID 2-45b]
T:[ID 2-45b]
T:Bezeichnung standardisiert: Polnischer Tanz Polon\"aise Tantz In dieser Quelle auch als: Tantz
T:Urheber unbekannt Datum in der hier transkribierten schriftlichen Quelle: 1767
C:Urheber unbekannt
C:Datum in der hier transkribierten schriftlichen Quelle: 1767
L:1/8
M:2/4
K:D
V:1 treble 
V:1
 a2 a2 | a/g/f/e/ fd | a2 a2 | a/g/f/e/ f2 :: Adef | gf/e/ fd | Adef | gf/e/ fa | fe/d/ e/g/e/c/ | %9
 d2 D2 :| %10

